svg/clipable-light.svg

<?xml version="1.0" encoding="utf-8"?>
<!-- Generator: Adobe Illustrator 28.2.0, SVG Export Plug-In . SVG Version: 6.00 Build 0)  -->
<svg version="1.1" id="Layer_1" xmlns="http://www.w3.org/2000/svg" xmlns:xlink="http://www.w3.org/1999/xlink" x="0px" y="0px"
	 viewBox="0 0 512 512" style="enable-background:new 0 0 512 512;" xml:space="preserve">
<style type="text/css">
	.st0{fill:#FFFFFF;}
</style>
<path class="st0" d="M482.8,80.9c-150.3,0-300.6,0.2-450.8-0.2C3.8,80.7,0.6,88,0.4,112.1C0,211.4,0.5,310.7,0,409.9
	c-0.1,16.2,6,21.5,21.8,21.4c77.9-0.5,155.9-0.2,233.8-0.2c75.7,0,151.4,0,227.1,0c27.2,0,29.3-1.9,29.3-29.1c0-97,0-194,0-291
	C512,85.1,507.9,80.9,482.8,80.9z M418.7,108.6c21.6,0,42.7,0,65.1,0c0,16.8,0,33.8,0,52.4c-21.9,0-43,0-65.1,0
	C418.7,143.5,418.7,126.5,418.7,108.6z M93.4,402.7c-22.1,0-43.9,0-65.9,0c0-17.6,0-33.8,0-51.2c21.8,0,43.3,0,65.9,0
	C93.4,368.2,93.4,385.2,93.4,402.7z M93.7,322.5c-21.9,0-43,0-65.3,0c0-16.8,0-33.8,0-52c21.2,0,42.7,0,65.3,0
	C93.7,288.5,93.7,305.1,93.7,322.5z M28,241.7c0-17.4,0-34,0-51.8c21.3,0,42.8,0,65.4,0c0,16.7,0,33.7,0,51.8
	C71,241.7,49.9,241.7,28,241.7z M93.7,161.1h-66v-52.4h66V161.1z M389.6,403.4c-89.6,0-178,0-267.3,0c0-98.1,0-195.5,0-294.2
	c88.5,0,177.3,0,267.3,0C389.6,206.5,389.6,304.3,389.6,403.4z M418.4,189.8c21.6,0,43.1,0,65.6,0c0,16.9,0,33.9,0,51.8
	c-21.5,0-42.6,0-65.6,0C418.4,224.2,418.4,207.6,418.4,189.8z M484.1,403.3c-21.6,0-42.7,0-65.1,0c0-16.8,0-33.8,0-51.9
	c21.1,0,42.6,0,65.1,0C484.1,368.5,484.1,385.5,484.1,403.3z M484.3,322.1c-21.4,0-42.9,0-65.5,0c0-16.8,0-33.8,0-51.7
	c21.7,0,43.2,0,65.5,0C484.3,287.6,484.3,304.3,484.3,322.1z"/>
</svg>

<svg xmlns="http://www.w3.org/2000/svg" xml:space="preserve" viewBox="0 0 512 512"><path d="M482.8 80.9c-150.3 0-300.6.2-450.8-.2C3.8 80.7.6 88 .4 112.1 0 211.4.5 310.7 0 409.9c-.1 16.2 6 21.5 21.8 21.4 77.9-.5 155.9-.2 233.8-.2h227.1c27.2 0 29.3-1.9 29.3-29.1V111c0-25.9-4.1-30.1-29.2-30.1m-64.1 27.7h65.1V161h-65.1zM93.4 402.7H27.5v-51.2h65.9zm.3-80.2H28.4v-52h65.3zM28 241.7v-51.8h65.4v51.8zm65.7-80.6h-66v-52.4h66zm295.9 242.3H122.3V109.2h267.3zm28.8-213.6H484v51.8h-65.6zm65.7 213.5H419v-51.9h65.1zm.2-81.2h-65.5v-51.7h65.5z" style="fill:#fff"/></svg>
